dist/img/sprites/like.svg

<svg width="24" height="25" viewBox="0 0 24 25" fill="none" xmlns="http://www.w3.org/2000/svg">
<path d="M15 10.4951L14.26 10.3721C14.2421 10.4796 14.2479 10.5896 14.2769 10.6946C14.3058 10.7996 14.3573 10.897 14.4277 10.9801C14.4982 11.0632 14.5858 11.1299 14.6847 11.1757C14.7835 11.2215 14.8911 11.2452 15 11.2451V10.4951ZM4 10.4951V9.74514C3.80109 9.74514 3.61032 9.82416 3.46967 9.96481C3.32902 10.1055 3.25 10.2962 3.25 10.4951H4ZM6 21.2451H17.36V19.7451H6V21.2451ZM18.56 9.74514H15V11.2451H18.56V9.74514ZM15.74 10.6181L16.546 5.78314L15.066 5.53614L14.26 10.3721L15.74 10.6181ZM14.82 3.74514H14.606V5.24514H14.819L14.82 3.74514ZM11.485 5.41514L8.97 9.18814L10.218 10.0201L12.733 6.24714L11.485 5.41514ZM7.93 9.74514H4V11.2451H7.93V9.74514ZM3.25 10.4951V18.4951H4.75V10.4951H3.25ZM20.057 19.0351L21.257 13.0351L19.787 12.7401L18.587 18.7401L20.057 19.0351ZM8.97 9.18814C8.8559 9.35942 8.70127 9.49889 8.51985 9.59605C8.33842 9.69322 8.13581 9.74409 7.93 9.74414V11.2441C8.85 11.2441 9.708 10.7851 10.218 10.0201L8.97 9.18814ZM16.546 5.78314C16.5877 5.53251 16.5743 5.27481 16.5067 5.02988C16.4392 4.78496 16.3191 4.55767 16.1549 4.36383C15.9906 4.16999 15.7861 4.01423 15.5556 3.90739C15.3251 3.80055 15.0741 3.74518 14.82 3.74514L14.819 5.24514C14.8552 5.24523 14.892 5.2532 14.9249 5.2685C14.9578 5.2838 14.9869 5.30606 15.0103 5.33374C15.0337 5.36142 15.0508 5.39386 15.0604 5.42881C15.07 5.46376 15.0719 5.50038 15.066 5.53614L16.546 5.78314ZM18.56 11.2441C19.35 11.2441 19.94 11.9661 19.786 12.7391L21.257 13.0341C21.3366 12.6352 21.3267 12.2226 21.228 11.828C21.1293 11.4334 20.9443 11.0656 20.6864 10.7511C20.4284 10.4366 20.1039 10.1832 19.7362 10.0093C19.3685 9.83534 18.9668 9.74512 18.56 9.74514V11.2441ZM17.36 21.2451C17.9957 21.2453 18.6118 21.0241 19.1035 20.6212C19.5952 20.2183 19.9322 19.6575 20.057 19.0341L18.587 18.7391C18.5303 19.0227 18.377 19.2779 18.1533 19.4612C17.9296 19.6444 17.6492 19.7454 17.36 19.7451V21.2451ZM14.606 3.74514C13.9887 3.74519 13.3809 3.89664 12.8366 4.18796C12.2923 4.47929 11.8284 4.90047 11.486 5.41414L12.733 6.24714C12.9385 5.9388 13.2171 5.685 13.5438 5.5102C13.8706 5.33539 14.2354 5.245 14.606 5.24514V3.74514ZM6 19.7451C5.31 19.7451 4.75 19.1851 4.75 18.4951H3.25C3.25 19.2245 3.53973 19.924 4.05546 20.4397C4.57118 20.9554 5.27065 21.2451 6 21.2451V19.7451Z" fill="currentColor"/>
<path d="M8 10.4941V20.4941" stroke="currentColor" stroke-width="1.5"/>
</svg>

<svg width="24" height="25" viewBox="0 0 24 25" fill="none" xmlns="http://www.w3.org/2000/svg"><path d="M15 10.495l-.74-.123a.749.749 0 00.74.873v-.75zm-11 0v-.75a.75.75 0 00-.75.75H4zm2 10.75h11.36v-1.5H6v1.5zm12.56-11.5H15v1.5h3.56v-1.5zm-2.82.873l.806-4.835-1.48-.247-.806 4.836 1.48.246zm-.92-6.873h-.214v1.5h.213l.001-1.5zm-3.335 1.67L8.97 9.188l1.248.832 2.515-3.773-1.248-.832zM7.93 9.745H4v1.5h3.93v-1.5zm-4.68.75v8h1.5v-8h-1.5zm16.807 8.54l1.2-6-1.47-.295-1.2 6 1.47.295zM8.97 9.188a1.247 1.247 0 01-1.04.556v1.5c.92 0 1.778-.459 2.288-1.224L8.97 9.188zm7.576-3.405a1.753 1.753 0 00-.99-1.876 1.75 1.75 0 00-.736-.162l-.001 1.5a.255.255 0 01.191.089.25.25 0 01.056.202l1.48.247zm2.014 5.461c.79 0 1.38.722 1.226 1.495l1.471.295a2.754 2.754 0 00-1.52-3.025 2.75 2.75 0 00-1.177-.264v1.5zm-1.2 10.001a2.75 2.75 0 002.697-2.21l-1.47-.296a1.25 1.25 0 01-1.227 1.006v1.5zm-2.754-17.5a3.75 3.75 0 00-3.12 1.67l1.247.832a2.253 2.253 0 011.873-1.002v-1.5zM6 19.745c-.69 0-1.25-.56-1.25-1.25h-1.5A2.75 2.75 0 006 21.245v-1.5z" fill="currentColor"/><path d="M8 10.494v10" stroke="currentColor" stroke-width="1.5"/></svg>
